svg_80x80/unity.svg

<svg viewBox="0 0 80 80" xmlns="http://www.w3.org/2000/svg">
<rect width="100%" height="100%" fill="black"/>
<path d="M42.4689 20.0925L52.4899 25.7574C52.85 25.9563 52.8631 26.5081 52.4899 26.707L40.5825 33.4433C40.2224 33.6486 39.7966 33.6358 39.4625 33.4433L27.5553 26.707C27.1886 26.5145 27.182 25.9499 27.5553 25.7574L37.5697 20.0925V9L12 23.4607V52.3819L21.8048 46.8391V35.5091C21.7982 35.1048 22.2829 34.8162 22.6431 35.0343L34.5503 41.7706C34.9106 41.976 35.1136 42.3418 35.1136 42.7203V56.1864C35.1202 56.5907 34.6355 56.8792 34.2753 56.6612L24.2543 50.9962L14.4496 56.5393L40.0194 71L65.589 56.5393L55.7841 50.9962L45.7634 56.6612C45.4096 56.873 44.9118 56.5971 44.9249 56.1864V42.7203C44.9249 42.316 45.1542 41.9569 45.4881 41.7706L57.3954 35.0343C57.749 34.8226 58.2468 35.0922 58.2336 35.5091V46.8391L68.0385 52.3819V23.4607L42.4689 9V20.0925Z" fill="white"/>
</svg>

<svg xmlns="http://www.w3.org/2000/svg" viewBox="0 0 80 80">
  <rect width="100%" height="100%"/>
  <path fill="#fff" d="m42.5 20 10 5.8c.4.2.4.7 0 1l-12 6.6c-.3.2-.7.2-1 0l-12-6.7c-.3-.2-.3-.8 0-1l10-5.6V9L12 23.5v28.9l9.8-5.6V35.5c0-.4.5-.7.8-.5l12 6.8c.3.2.5.5.5 1v13.4c0 .4-.5.7-.8.5l-10-5.7-9.9 5.5L40 71l25.6-14.5-9.8-5.5-10 5.7c-.4.2-.9-.1-.9-.5V42.7c0-.4.3-.7.6-1L57.4 35c.3-.2.8 0 .8.5v11.3l9.8 5.6v-29L42.5 9v11Z"/>
</svg>
